!!!OTL: Der verliebte Jaeger.
!!!OTL-incipit: EIN JAEGER ZOG ZU WALDE
!!!COM: C. Karow
!!!ARE: Europa, Mitteleuropa, Deutschland
!!!SCT: F0673
!!!TXL: @@DE
!!!YEM: Copyright 1995, estate of Helmut Schaffrath.
**kern	**text
*ICvox	*
*M4/4	*
*met(c)	*
*k[b-e-]	*
*B-:	*
{4f	1._Ein
=1	=1
4.f	Jä-
8d	-ger
4f	ʒog
4b-	ʒu
=2	=2
2f	Wal-
4d}	-de,
{4f	da
=3	=3
4.f	äſ't
8f	ein
(8gL	gu-
8fJ)	.
(8gL	-ter
8aJ)	.
=4	=4
2b-	Hirſch,
4r}	.
{4dd	hal-
=5	=5
4cc	-lo!
8r	.
8cc	be-
(8ddL	-glück-
8ccJ)	.
(8b-L	-ter
8ccJ)	.
=6	=6
2dd	Jä-
4b-}	-ger,
{4dd	heut
=7	=7
4.cc	haſt
8c	du
4c	gu-
(8dL	-te
8enJ)	.
=8	=8
2f	Pirſch,
4r}	.
{4f	doch
=9	=9
4.cc	trüb'
8cc	iſt
(8b-L	Jä-
8aJ)	.
(8gL	-gers-
8aJ)	.
=10	=10
2b-/	-Au-
4f}	-ge,
{4f	was
=11	=11
4.ee-	ſehlt
8ee-	dem
(8ddL	Wai-
8ccJ)	.
(8ddL	-de-
8ee-J)	.
=12	=12
2cc	-mann?
4r}	.
{4f	Er
=13	=13
4.dd	ſieht
8dd	den
4cc	Hirſch
4cc	nicht
=14	=14
(4.b-/	ä-
8a)	.
4g}	-ſen,
{4cc	was
=15	=15
4.b-	iſt
8b-	wohl
(8b-L	ſchuld
8aJ)	.
8gL	da-
8aJ	.
=16	=16
2b-	-ran?
4r}	.
==	==
!!!AGN: Staende -, Jaeger - Lied, Liebe
!!!ONB: ESAC (Essen Associative Code) Database: FINK
!!!AMT: simple quadruple
!!!AIN: vox
!!!EED: Helmut Schaffrath
!!!EEV: 1.0
!!!GTL: Soldaten- und Jaegerlieder
!!!source: Musikalischer Hausschatz der Deutschen. Eine Sammlung von über 1000 Liedern und Gesängen mit Singstimmen und Klavierbegleitung. Leipzig, Litterarisches Verlags-Haus.
!!!page: 447
!!!ENC: Anna Maria Matuszewska
!!!EEV: 2025/03/18
*-	*-
